X:97
T:O The Days When I Was Young THO4.97
M:C|
L:1/8
Z:vmp. Peter Dunk 2010/11.from a transcription by Fynn Titford-Mock 2007
B:Thompson's Compleat Collection of 200 Favourite Country Dances Volume IV.
Q:1/2=80
K:D
dB|AFDF A2 dB|AFDF A2 dB|AFDF B2 eG|\
Fdec d2 dd|ccBB A2 Ac|edcB A2 :|
|:dd|ccBB A2 AB/c/|dFED HA2 dB|AFDF E2 dB|\
AFDF A2 dB|AFDF B2 e/f/g/e/| fdAc d2:|

